markets/ADA.svg

<svg width="42" height="42" viewBox="0 0 42 42" fill="none" xmlns="http://www.w3.org/2000/svg">
<g clip-path="url(#clip0_7277_57346)">
<path d="M21 42C32.598 42 42 32.598 42 21C42 9.40202 32.598 0 21 0C9.40202 0 0 9.40202 0 21C0 32.598 9.40202 42 21 42Z" fill="#0D1E30"/>
<g filter="url(#filter0_d_7277_57346)">
<path d="M20.6385 7.95394C21.2672 7.62975 22.035 8.37919 21.7016 8.99737C21.506 9.50137 20.7697 9.63525 20.3944 9.25069C19.9967 8.88319 20.1266 8.15344 20.6385 7.95262V7.95394ZM13.8725 8.67056C14.2545 8.51569 14.7388 8.85956 14.6994 9.27037C14.7388 9.714 14.1875 10.0421 13.7977 9.83081C13.2819 9.63394 13.341 8.80969 13.8725 8.67056V8.67056ZM27.7299 9.84262C27.1327 9.77175 27.0382 8.84775 27.6118 8.66137C28.058 8.44875 28.4675 8.84906 28.5332 9.26512C28.4387 9.6195 28.1368 9.945 27.7299 9.84262V9.84262ZM15.4121 11.5029C16.0513 11.1052 16.9622 11.6972 16.8637 12.4282C16.8309 13.1646 15.836 13.5924 15.2743 13.0937C14.7309 12.7026 14.8136 11.8048 15.4121 11.5029ZM25.164 11.9256C25.4488 11.2037 26.6038 11.1801 26.928 11.8836C27.2495 12.4309 26.8545 13.1094 26.2835 13.2958C25.5262 13.4349 24.8083 12.6291 25.164 11.9256ZM19.8234 13.2551C19.8169 12.633 20.3917 12.171 20.9915 12.1277C21.3905 12.2064 21.8237 12.3731 21.9943 12.7682C22.3132 13.3142 22.0297 14.0636 21.4562 14.3143C21.1937 14.4587 20.8813 14.4049 20.5952 14.3878C20.1581 14.1778 19.7893 13.7617 19.8234 13.2551ZM9.76179 14.1607C10.3459 13.8064 11.1334 14.4495 10.9115 15.0742C10.7908 15.6137 10.0532 15.8329 9.63185 15.489C9.18167 15.1661 9.25254 14.3904 9.7631 14.1594L9.76179 14.1607ZM31.3682 14.1581C31.863 13.7801 32.6807 14.2146 32.6203 14.8288C32.6544 15.3892 31.947 15.8132 31.4561 15.5244C30.9154 15.2842 30.8589 14.4652 31.3682 14.1594V14.1581ZM22.6532 15.2751C23.4695 14.9863 24.4408 15.3315 24.9054 16.0494C25.5197 16.9249 25.1942 18.2584 24.24 18.7611C23.253 19.3556 21.8105 18.8529 21.4444 17.7662C21.0309 16.7949 21.6347 15.5796 22.6519 15.2751H22.6532ZM17.8586 15.3709C18.7642 14.9509 19.9835 15.3026 20.4206 16.2135C20.9351 17.1007 20.5374 18.3358 19.6174 18.7939C18.696 19.3097 17.3953 18.9186 16.9504 17.967C16.4503 17.0456 16.8939 15.7948 17.8586 15.3709V15.3709ZM13.0588 16.9839C13.1284 16.4104 13.6783 16.0363 14.2335 15.9969C14.523 16.0275 14.7936 16.1554 15.001 16.3597C15.2085 16.5641 15.3404 16.8327 15.3754 17.1217C15.336 17.7124 14.8727 18.2872 14.2374 18.2846C13.5379 18.3437 12.9249 17.6586 13.0588 16.9839V16.9839ZM27.2364 16.1229C27.9544 15.7121 28.9505 16.3093 28.919 17.1204C28.9676 17.9801 27.8651 18.5852 27.1511 18.0812C26.4082 17.6612 26.466 16.4799 27.2364 16.1229ZM15.9095 19.1509C16.7469 18.9238 17.7077 19.3123 18.1185 20.0709C18.5687 20.8348 18.3849 21.8953 17.6854 22.4571C16.7863 23.2787 15.1312 22.9479 14.6535 21.8271C14.1035 20.7994 14.7716 19.4212 15.9082 19.1496L15.9095 19.1509ZM25.0012 19.1469C25.8163 18.9172 26.7744 19.2257 27.2128 19.9567C27.7929 20.7928 27.516 22.041 26.6537 22.5791C25.748 23.2052 24.3489 22.8771 23.8502 21.8979C23.2464 20.886 23.8541 19.4554 25.0012 19.1469V19.1469ZM10.5112 20.0998C11.2357 19.8307 12.039 20.6169 11.745 21.3244C11.5665 21.9675 10.6438 22.2064 10.1674 21.7312C9.60954 21.285 9.8156 20.2941 10.5112 20.0998V20.0998ZM30.158 21.1262C30.1444 20.8373 30.2455 20.5546 30.4391 20.3398C30.6328 20.125 30.9035 19.9953 31.1923 19.9791C31.6884 20.0578 32.1714 20.4516 32.132 20.9831C32.178 21.6853 31.3183 22.1617 30.7093 21.8323C30.4245 21.6892 30.2788 21.4018 30.158 21.1262ZM6.94779 20.4489C7.38354 20.2612 7.92298 20.6327 7.82323 21.1091C7.7996 21.6486 6.98979 21.8572 6.69317 21.4057C6.43067 21.0921 6.58817 20.6104 6.94779 20.4476V20.4489ZM34.4434 20.4371C34.7505 20.2232 35.244 20.3767 35.3647 20.7298C35.5708 21.1157 35.1928 21.6433 34.7518 21.579C34.1323 21.6341 33.9328 20.7062 34.4434 20.4371ZM18.2773 23.0267C19.4244 22.734 20.6582 23.6751 20.666 24.8379C20.7395 26.0126 19.5242 27.0534 18.3508 26.7831C17.4425 26.6387 16.7299 25.7777 16.76 24.876C16.7574 24.0124 17.4189 23.2091 18.2773 23.0267V23.0267ZM22.8212 23.0254C23.9854 22.7051 25.2559 23.6632 25.2375 24.8524C25.2992 26.0047 24.1219 27.0114 22.9721 26.7817C21.8893 26.6452 21.0913 25.4758 21.3932 24.4416C21.5454 23.7538 22.1308 23.1947 22.8212 23.0241V23.0254ZM14.0589 23.7407C14.8648 23.6055 15.6208 24.4888 15.294 25.2422C15.0551 26.0454 13.8686 26.262 13.3436 25.6071C12.7294 24.9771 13.1887 23.8273 14.0589 23.7407V23.7407ZM27.386 23.7761C28.1053 23.4795 28.9873 24.0911 28.9322 24.8589C28.961 25.7029 27.8717 26.2856 27.1695 25.7921C26.3728 25.3498 26.5185 24.0465 27.386 23.7761V23.7761ZM31.1109 27.4511C30.83 26.9353 31.3406 26.2515 31.9247 26.3473C32.2134 26.3421 32.4169 26.5665 32.6019 26.7555C32.64 27.0613 32.7043 27.4262 32.4457 27.6611C32.0953 28.0982 31.3012 27.9735 31.1109 27.4511V27.4511ZM9.75917 26.4904C10.3039 26.1347 11.0874 26.6662 10.964 27.291C10.8984 27.8462 10.1897 28.1625 9.72373 27.8475C9.22235 27.5627 9.24073 26.7502 9.75917 26.4904V26.4904ZM20.5125 27.6493C21.2252 27.3409 22.1334 27.9512 22.0652 28.7229C22.1177 29.5761 20.9955 30.1667 20.2985 29.6548C19.5242 29.2151 19.6541 27.921 20.5125 27.6493V27.6493ZM15.5329 28.7925C16.1392 28.4788 16.953 29.0209 16.8979 29.6902C16.9162 30.2389 16.3729 30.7061 15.8216 30.6247C15.3662 30.6156 15.0695 30.2126 14.9225 29.8307C14.9304 29.4146 15.105 28.9513 15.5329 28.7938V28.7925ZM25.6207 28.803C26.2455 28.4224 27.1327 28.9684 27.0737 29.6824C27.0894 30.4305 26.0867 30.9082 25.5052 30.4174C24.9435 30.0328 25.0117 29.1088 25.6207 28.803ZM27.3755 33.0686C27.0973 32.6565 27.4241 32.1591 27.8743 32.0646C28.2379 32.1367 28.6224 32.4058 28.545 32.8179C28.4925 33.3784 27.6604 33.549 27.3755 33.0699V33.0686ZM13.4486 32.7103C13.5589 32.3822 13.8266 32.058 14.219 32.1433C14.79 32.1827 14.9593 33.0306 14.4592 33.2917C14.0104 33.5897 13.488 33.1815 13.4486 32.7103ZM20.1686 33.087C20.2775 32.6014 20.9141 32.3664 21.3341 32.6237C21.6124 32.7418 21.6937 33.0463 21.7646 33.3062C21.7271 33.4412 21.6921 33.5768 21.6596 33.7131C21.4877 33.9126 21.2659 34.1134 20.9797 34.1068C20.4482 34.1685 19.9678 33.5766 20.1673 33.087H20.1686Z" fill="black"/>
</g>
<path d="M20.6385 7.95394C21.2672 7.62975 22.035 8.37919 21.7016 8.99737C21.506 9.50137 20.7697 9.63525 20.3944 9.25069C19.9967 8.88319 20.1266 8.15344 20.6385 7.95262V7.95394ZM13.8725 8.67056C14.2545 8.51569 14.7388 8.85956 14.6994 9.27037C14.7388 9.714 14.1875 10.0421 13.7977 9.83081C13.2819 9.63394 13.341 8.80969 13.8725 8.67056V8.67056ZM27.7299 9.84262C27.1327 9.77175 27.0382 8.84775 27.6118 8.66137C28.058 8.44875 28.4675 8.84906 28.5332 9.26512C28.4387 9.6195 28.1368 9.945 27.7299 9.84262V9.84262ZM15.4121 11.5029C16.0513 11.1052 16.9622 11.6972 16.8637 12.4282C16.8309 13.1646 15.836 13.5924 15.2743 13.0937C14.7309 12.7026 14.8136 11.8048 15.4121 11.5029ZM25.164 11.9256C25.4488 11.2037 26.6038 11.1801 26.928 11.8836C27.2495 12.4309 26.8545 13.1094 26.2835 13.2958C25.5262 13.4349 24.8083 12.6291 25.164 11.9256ZM19.8234 13.2551C19.8169 12.633 20.3917 12.171 20.9915 12.1277C21.3905 12.2064 21.8237 12.3731 21.9943 12.7682C22.3132 13.3142 22.0297 14.0636 21.4562 14.3143C21.1937 14.4587 20.8813 14.4049 20.5952 14.3878C20.1581 14.1778 19.7893 13.7617 19.8234 13.2551ZM9.76179 14.1607C10.3459 13.8064 11.1334 14.4495 10.9115 15.0742C10.7908 15.6137 10.0532 15.8329 9.63185 15.489C9.18167 15.1661 9.25254 14.3904 9.7631 14.1594L9.76179 14.1607ZM31.3682 14.1581C31.863 13.7801 32.6807 14.2146 32.6203 14.8288C32.6544 15.3892 31.947 15.8132 31.4561 15.5244C30.9154 15.2842 30.8589 14.4652 31.3682 14.1594V14.1581ZM22.6532 15.2751C23.4695 14.9863 24.4408 15.3315 24.9054 16.0494C25.5197 16.9249 25.1942 18.2584 24.24 18.7611C23.253 19.3556 21.8105 18.8529 21.4444 17.7662C21.0309 16.7949 21.6347 15.5796 22.6519 15.2751H22.6532ZM17.8586 15.3709C18.7642 14.9509 19.9835 15.3026 20.4206 16.2135C20.9351 17.1007 20.5374 18.3358 19.6174 18.7939C18.696 19.3097 17.3953 18.9186 16.9504 17.967C16.4503 17.0456 16.8939 15.7948 17.8586 15.3709V15.3709ZM13.0588 16.9839C13.1284 16.4104 13.6783 16.0363 14.2335 15.9969C14.523 16.0275 14.7936 16.1554 15.001 16.3597C15.2085 16.5641 15.3404 16.8327 15.3754 17.1217C15.336 17.7124 14.8727 18.2872 14.2374 18.2846C13.5379 18.3437 12.9249 17.6586 13.0588 16.9839V16.9839ZM27.2364 16.1229C27.9544 15.7121 28.9505 16.3093 28.919 17.1204C28.9676 17.9801 27.8651 18.5852 27.1511 18.0812C26.4082 17.6612 26.466 16.4799 27.2364 16.1229ZM15.9095 19.1509C16.7469 18.9238 17.7077 19.3123 18.1185 20.0709C18.5687 20.8348 18.3849 21.8953 17.6854 22.4571C16.7863 23.2787 15.1312 22.9479 14.6535 21.8271C14.1035 20.7994 14.7716 19.4212 15.9082 19.1496L15.9095 19.1509ZM25.0012 19.1469C25.8163 18.9172 26.7744 19.2257 27.2128 19.9567C27.7929 20.7928 27.516 22.041 26.6537 22.5791C25.748 23.2052 24.3489 22.8771 23.8502 21.8979C23.2464 20.886 23.8541 19.4554 25.0012 19.1469V19.1469ZM10.5112 20.0998C11.2357 19.8307 12.039 20.6169 11.745 21.3244C11.5665 21.9675 10.6438 22.2064 10.1674 21.7312C9.60954 21.285 9.8156 20.2941 10.5112 20.0998V20.0998ZM30.158 21.1262C30.1444 20.8373 30.2455 20.5546 30.4391 20.3398C30.6328 20.125 30.9035 19.9953 31.1923 19.9791C31.6884 20.0578 32.1714 20.4516 32.132 20.9831C32.178 21.6853 31.3183 22.1617 30.7093 21.8323C30.4245 21.6892 30.2788 21.4018 30.158 21.1262ZM6.94779 20.4489C7.38354 20.2612 7.92298 20.6327 7.82323 21.1091C7.7996 21.6486 6.98979 21.8572 6.69317 21.4057C6.43067 21.0921 6.58817 20.6104 6.94779 20.4476V20.4489ZM34.4434 20.4371C34.7505 20.2232 35.244 20.3767 35.3647 20.7298C35.5708 21.1157 35.1928 21.6433 34.7518 21.579C34.1323 21.6341 33.9328 20.7062 34.4434 20.4371ZM18.2773 23.0267C19.4244 22.734 20.6582 23.6751 20.666 24.8379C20.7395 26.0126 19.5242 27.0534 18.3508 26.7831C17.4425 26.6387 16.7299 25.7777 16.76 24.876C16.7574 24.0124 17.4189 23.2091 18.2773 23.0267V23.0267ZM22.8212 23.0254C23.9854 22.7051 25.2559 23.6632 25.2375 24.8524C25.2992 26.0047 24.1219 27.0114 22.9721 26.7817C21.8893 26.6452 21.0913 25.4758 21.3932 24.4416C21.5454 23.7538 22.1308 23.1947 22.8212 23.0241V23.0254ZM14.0589 23.7407C14.8648 23.6055 15.6208 24.4888 15.294 25.2422C15.0551 26.0454 13.8686 26.262 13.3436 25.6071C12.7294 24.9771 13.1887 23.8273 14.0589 23.7407V23.7407ZM27.386 23.7761C28.1053 23.4795 28.9873 24.0911 28.9322 24.8589C28.961 25.7029 27.8717 26.2856 27.1695 25.7921C26.3728 25.3498 26.5185 24.0465 27.386 23.7761V23.7761ZM31.1109 27.4511C30.83 26.9353 31.3406 26.2515 31.9247 26.3473C32.2134 26.3421 32.4169 26.5665 32.6019 26.7555C32.64 27.0613 32.7043 27.4262 32.4457 27.6611C32.0953 28.0982 31.3012 27.9735 31.1109 27.4511V27.4511ZM9.75917 26.4904C10.3039 26.1347 11.0874 26.6662 10.964 27.291C10.8984 27.8462 10.1897 28.1625 9.72373 27.8475C9.22235 27.5627 9.24073 26.7502 9.75917 26.4904V26.4904ZM20.5125 27.6493C21.2252 27.3409 22.1334 27.9512 22.0652 28.7229C22.1177 29.5761 20.9955 30.1667 20.2985 29.6548C19.5242 29.2151 19.6541 27.921 20.5125 27.6493V27.6493ZM15.5329 28.7925C16.1392 28.4788 16.953 29.0209 16.8979 29.6902C16.9162 30.2389 16.3729 30.7061 15.8216 30.6247C15.3662 30.6156 15.0695 30.2126 14.9225 29.8307C14.9304 29.4146 15.105 28.9513 15.5329 28.7938V28.7925ZM25.6207 28.803C26.2455 28.4224 27.1327 28.9684 27.0737 29.6824C27.0894 30.4305 26.0867 30.9082 25.5052 30.4174C24.9435 30.0328 25.0117 29.1088 25.6207 28.803ZM27.3755 33.0686C27.0973 32.6565 27.4241 32.1591 27.8743 32.0646C28.2379 32.1367 28.6224 32.4058 28.545 32.8179C28.4925 33.3784 27.6604 33.549 27.3755 33.0699V33.0686ZM13.4486 32.7103C13.5589 32.3822 13.8266 32.058 14.219 32.1433C14.79 32.1827 14.9593 33.0306 14.4592 33.2917C14.0104 33.5897 13.488 33.1815 13.4486 32.7103ZM20.1686 33.087C20.2775 32.6014 20.9141 32.3664 21.3341 32.6237C21.6124 32.7418 21.6937 33.0463 21.7646 33.3062C21.7271 33.4412 21.6921 33.5768 21.6596 33.7131C21.4877 33.9126 21.2659 34.1134 20.9797 34.1068C20.4482 34.1685 19.9678 33.5766 20.1673 33.087H20.1686Z" fill="white"/>
</g>
<defs>
<filter id="filter0_d_7277_57346" x="6.41651" y="7.80274" width="29.152" height="26.5276" filterUnits="userSpaceOnUse" color-interpolation-filters="sRGB">
<feFlood flood-opacity="0" result="BackgroundImageFix"/>
<feColorMatrix in="SourceAlpha" type="matrix" values="0 0 0 0 0 0 0 0 0 0 0 0 0 0 0 0 0 0 127 0" result="hardAlpha"/>
<feOffset dy="0.0729955"/>
<feGaussianBlur stdDeviation="0.0729955"/>
<feColorMatrix type="matrix" values="0 0 0 0 0 0 0 0 0 0 0 0 0 0 0 0 0 0 0.204257 0"/>
<feBlend mode="normal" in2="BackgroundImageFix" result="effect1_dropShadow_7277_57346"/>
<feBlend mode="normal" in="SourceGraphic" in2="effect1_dropShadow_7277_57346" result="shape"/>
</filter>
<clipPath id="clip0_7277_57346">
<rect width="42" height="42" fill="white"/>
</clipPath>
</defs>
</svg>

<svg xmlns="http://www.w3.org/2000/svg" width="42" height="42" fill="none"><g clip-path="url(#a)"><path fill="#0D1E30" d="M21 42c11.598 0 21-9.402 21-21S32.598 0 21 0 0 9.402 0 21s9.402 21 21 21Z"/><g filter="url(#b)"><path fill="#000" d="M20.639 7.954c.628-.324 1.396.425 1.063 1.043-.196.504-.932.638-1.308.254-.397-.368-.267-1.098.245-1.298Zm-6.766.717c.382-.155.866.189.826.6.04.443-.511.771-.901.56-.516-.197-.457-1.021.075-1.16ZM27.73 9.843c-.597-.071-.692-.995-.118-1.182.446-.212.856.188.921.604-.094.354-.396.68-.803.578Zm-12.318 1.66c.64-.398 1.55.194 1.452.925-.033.737-1.028 1.164-1.59.666-.543-.391-.46-1.29.138-1.591Zm9.752.423c.285-.722 1.44-.746 1.764-.042.322.547-.073 1.225-.645 1.412-.757.139-1.475-.667-1.119-1.37Zm-5.34 1.33c-.007-.623.568-1.085 1.167-1.128.4.078.833.245 1.003.64.32.546.036 1.296-.538 1.546-.262.145-.575.09-.86.074-.438-.21-.807-.626-.773-1.133Zm-10.062.905c.584-.355 1.371.289 1.15.913-.121.54-.859.759-1.28.415-.45-.323-.38-1.099.131-1.33l-.001.002Zm21.606-.003c.495-.378 1.313.057 1.252.67.034.561-.673.985-1.164.696-.54-.24-.597-1.059-.088-1.365Zm-8.715 1.117c.817-.289 1.788.056 2.252.774.615.876.29 2.21-.665 2.712-.987.595-2.43.092-2.796-.995-.413-.971.19-2.186 1.208-2.49h.001Zm-4.794.096c.905-.42 2.124-.068 2.562.842.514.888.116 2.123-.804 2.58-.921.517-2.222.126-2.667-.826-.5-.921-.056-2.172.909-2.596Zm-4.8 1.613c.07-.574.62-.948 1.175-.987a1.286 1.286 0 0 1 1.141 1.125c-.039.59-.502 1.165-1.138 1.163-.7.059-1.312-.626-1.178-1.301Zm14.177-.861c.718-.41 1.715.186 1.683.997.049.86-1.054 1.465-1.768.961-.743-.42-.685-1.601.085-1.958ZM15.91 19.15c.838-.227 1.799.161 2.21.92.45.764.266 1.824-.434 2.386-.899.822-2.554.49-3.031-.63-.55-1.028.118-2.406 1.254-2.677h.002Zm9.092-.004c.815-.23 1.773.079 2.212.81.58.836.303 2.084-.56 2.622-.905.626-2.304.298-2.803-.681-.604-1.012.004-2.443 1.151-2.751Zm-14.49.953c.725-.27 1.528.517 1.234 1.224-.178.643-1.101.882-1.578.407-.557-.446-.351-1.437.344-1.631Zm19.647 1.026a1.098 1.098 0 0 1 1.034-1.147c.496.079.98.473.94 1.004.046.702-.814 1.179-1.423.85-.285-.144-.43-.431-.551-.707Zm-23.21-.677c.436-.188.975.184.875.66-.023.54-.833.748-1.13.297-.262-.314-.105-.796.255-.958Zm27.495-.012c.308-.214.801-.06.922.293.206.386-.172.913-.613.849-.62.055-.82-.873-.309-1.142Zm-16.166 2.59c1.147-.293 2.381.648 2.389 1.81.073 1.176-1.142 2.216-2.315 1.946-.909-.144-1.621-1.005-1.591-1.907-.003-.864.659-1.667 1.517-1.85Zm4.544-.002c1.164-.32 2.435.638 2.416 1.827.062 1.153-1.115 2.16-2.265 1.93-1.083-.137-1.88-1.306-1.579-2.34.152-.688.738-1.247 1.428-1.418v.001Zm-8.762.716c.806-.136 1.562.748 1.235 1.501-.239.803-1.425 1.02-1.95.365-.615-.63-.155-1.78.715-1.866Zm13.327.035c.72-.296 1.601.315 1.546 1.083.029.844-1.06 1.427-1.762.933-.797-.442-.652-1.745.216-2.016Zm3.725 3.675c-.281-.516.23-1.2.814-1.104.288-.005.492.22.677.409.038.305.102.67-.156.905-.35.437-1.145.313-1.335-.21Zm-21.352-.96c.545-.356 1.328.175 1.205.8-.066.555-.774.872-1.24.556-.502-.284-.483-1.097.035-1.357Zm10.753 1.158c.713-.308 1.621.302 1.553 1.074.053.853-1.07 1.444-1.767.932-.774-.44-.644-1.734.215-2.006Zm-4.98 1.143c.607-.313 1.421.229 1.366.898.018.549-.525 1.016-1.076.935-.456-.01-.752-.412-.9-.794.008-.416.183-.88.61-1.037v-.002Zm10.089.011c.625-.38 1.512.165 1.453.88.015.747-.987 1.225-1.569.734-.561-.384-.493-1.308.116-1.614Zm1.755 4.266c-.279-.413.048-.91.498-1.004.364.072.748.34.671.753-.053.56-.885.731-1.17.252v-.001Zm-13.927-.359c.11-.328.378-.652.77-.567.571.04.74.888.24 1.149-.449.298-.971-.11-1.01-.582Zm6.72.377c.108-.486.745-.72 1.165-.463.278.118.36.422.43.682-.037.135-.072.27-.104.407-.172.2-.394.4-.68.394-.532.062-1.012-.53-.813-1.02h.002Z"/></g><path fill="#fff" d="M20.639 7.954c.628-.324 1.396.425 1.063 1.043-.196.504-.932.638-1.308.254-.397-.368-.267-1.098.245-1.298Zm-6.766.717c.382-.155.866.189.826.6.04.443-.511.771-.901.56-.516-.197-.457-1.021.075-1.16ZM27.73 9.843c-.597-.071-.692-.995-.118-1.182.446-.212.856.188.921.604-.094.354-.396.68-.803.578Zm-12.318 1.66c.64-.398 1.55.194 1.452.925-.033.737-1.028 1.164-1.59.666-.543-.391-.46-1.29.138-1.591Zm9.752.423c.285-.722 1.44-.746 1.764-.042.322.547-.073 1.225-.645 1.412-.757.139-1.475-.667-1.119-1.37Zm-5.34 1.33c-.007-.623.568-1.085 1.167-1.128.4.078.833.245 1.003.64.32.546.036 1.296-.538 1.546-.262.145-.575.09-.86.074-.438-.21-.807-.626-.773-1.133Zm-10.062.905c.584-.355 1.371.289 1.15.913-.121.54-.859.759-1.28.415-.45-.323-.38-1.099.131-1.33l-.001.002Zm21.606-.003c.495-.378 1.313.057 1.252.67.034.561-.673.985-1.164.696-.54-.24-.597-1.059-.088-1.365Zm-8.715 1.117c.817-.289 1.788.056 2.252.774.615.876.29 2.21-.665 2.712-.987.595-2.43.092-2.796-.995-.413-.971.19-2.186 1.208-2.49h.001Zm-4.794.096c.905-.42 2.124-.068 2.562.842.514.888.116 2.123-.804 2.58-.921.517-2.222.126-2.667-.826-.5-.921-.056-2.172.909-2.596Zm-4.8 1.613c.07-.574.62-.948 1.175-.987a1.286 1.286 0 0 1 1.141 1.125c-.039.59-.502 1.165-1.138 1.163-.7.059-1.312-.626-1.178-1.301Zm14.177-.861c.718-.41 1.715.186 1.683.997.049.86-1.054 1.465-1.768.961-.743-.42-.685-1.601.085-1.958ZM15.91 19.15c.838-.227 1.799.161 2.21.92.45.764.266 1.824-.434 2.386-.899.822-2.554.49-3.031-.63-.55-1.028.118-2.406 1.254-2.677h.002Zm9.092-.004c.815-.23 1.773.079 2.212.81.58.836.303 2.084-.56 2.622-.905.626-2.304.298-2.803-.681-.604-1.012.004-2.443 1.151-2.751Zm-14.49.953c.725-.27 1.528.517 1.234 1.224-.178.643-1.101.882-1.578.407-.557-.446-.351-1.437.344-1.631Zm19.647 1.026a1.098 1.098 0 0 1 1.034-1.147c.496.079.98.473.94 1.004.046.702-.814 1.179-1.423.85-.285-.144-.43-.431-.551-.707Zm-23.21-.677c.436-.188.975.184.875.66-.023.54-.833.748-1.13.297-.262-.314-.105-.796.255-.958Zm27.495-.012c.308-.214.801-.06.922.293.206.386-.172.913-.613.849-.62.055-.82-.873-.309-1.142Zm-16.166 2.59c1.147-.293 2.381.648 2.389 1.81.073 1.176-1.142 2.216-2.315 1.946-.909-.144-1.621-1.005-1.591-1.907-.003-.864.659-1.667 1.517-1.85Zm4.544-.002c1.164-.32 2.435.638 2.416 1.827.062 1.153-1.115 2.16-2.265 1.93-1.083-.137-1.88-1.306-1.579-2.34.152-.688.738-1.247 1.428-1.418v.001Zm-8.762.716c.806-.136 1.562.748 1.235 1.501-.239.803-1.425 1.02-1.95.365-.615-.63-.155-1.78.715-1.866Zm13.327.035c.72-.296 1.601.315 1.546 1.083.029.844-1.06 1.427-1.762.933-.797-.442-.652-1.745.216-2.016Zm3.725 3.675c-.281-.516.23-1.2.814-1.104.288-.005.492.22.677.409.038.305.102.67-.156.905-.35.437-1.145.313-1.335-.21Zm-21.352-.96c.545-.356 1.328.175 1.205.8-.066.555-.774.872-1.24.556-.502-.284-.483-1.097.035-1.357Zm10.753 1.158c.713-.308 1.621.302 1.553 1.074.053.853-1.07 1.444-1.767.932-.774-.44-.644-1.734.215-2.006Zm-4.98 1.143c.607-.313 1.421.229 1.366.898.018.549-.525 1.016-1.076.935-.456-.01-.752-.412-.9-.794.008-.416.183-.88.61-1.037v-.002Zm10.089.011c.625-.38 1.512.165 1.453.88.015.747-.987 1.225-1.569.734-.561-.384-.493-1.308.116-1.614Zm1.755 4.266c-.279-.413.048-.91.498-1.004.364.072.748.34.671.753-.053.56-.885.731-1.17.252v-.001Zm-13.927-.359c.11-.328.378-.652.77-.567.571.04.74.888.24 1.149-.449.298-.971-.11-1.01-.582Zm6.72.377c.108-.486.745-.72 1.165-.463.278.118.36.422.43.682-.037.135-.072.27-.104.407-.172.2-.394.4-.68.394-.532.062-1.012-.53-.813-1.02h.002Z"/></g><defs><clipPath id="a"><path fill="#fff" d="M0 0h42v42H0z"/></clipPath><filter id="b" width="29.152" height="26.528" x="6.417" y="7.803" color-interpolation-filters="sRGB" filterUnits="userSpaceOnUse"><feFlood flood-opacity="0" result="BackgroundImageFix"/><feColorMatrix in="SourceAlpha" result="hardAlpha" values="0 0 0 0 0 0 0 0 0 0 0 0 0 0 0 0 0 0 127 0"/><feOffset dy=".073"/><feGaussianBlur stdDeviation=".073"/><feColorMatrix values="0 0 0 0 0 0 0 0 0 0 0 0 0 0 0 0 0 0 0.204257 0"/><feBlend in2="BackgroundImageFix" result="effect1_dropShadow_7277_57346"/><feBlend in="SourceGraphic" in2="effect1_dropShadow_7277_57346" result="shape"/></filter></defs></svg>
